X:1
T:Title
%%score ( 1 2 3 ) { ( 4 6 ) | ( 5 7 ) }
L:1/8
Q:1/4=115
M:4/4
K:F
V:1 treble nm="Grand Piano, Staff"
V:2 treble 
V:3 treble 
V:4 bass nm="Choir Pad, Song 34 (Gibbons), LM"
V:6 bass 
V:5 bass 
V:7 bass 
V:1
 [CF]4 [CF]2 F2 | [EG]2 [FA]2 [DB]2 [EG]2 | [Fc]6 F2 | [FA]2 [FB]2 [Gc]4 | z2 c4 z2 | [Ec]6 [FA]2 | %6
w: By~Orlando~Gibbons,~1623 * *||||||
 z2 c2 z4 | z2 B4 z2 | [EG]6 [Fc]2 | [FB]2 [FA]2 [EG]4 | z2 A2 G4 | [CF]8 |] %12
w: ||||||
V:2
 x8 | x8 | x8 | x8 | G2 F2 z2 =B2 | x8 | [FB]2 GA [Bd]4 | [Ac]2 F2 G2 [FA]2 | x8 | x8 | %10
 [DF]2 F4 E2 | x8 |] %12
V:3
 x8 | x8 | x8 | x8 | z4 D4 | x8 | x8 | x8 | x8 | x8 | x8 | x8 |] %12
V:4
 A,4 A,2 A,2 | C2 C2 B,2 B,2 | A,6 A,2 | C2 D2 E4 | C2 A,2 z2 D2 | C6 C2 | F2 E2 D4 | E2 F2 C2 C2 | %8
 C6 C2 | D2 C2 C2 B,2 | A,2 C4 z2 | A,8 |] %12
V:5
 F,4 F,2 F,2 | C,2 A,,2 G,,2 G,,2 | F,,6 F,2 | F,2 D,2 C,4 | E,2 F,2 z4 | C,6 F,2 | D,2 C,2 B,,4 | %7
 C,2 D,2 E,2 F,2 | C,6 A,,2 | B,,2 F,,2 C,4 | D,2 A,,2 z2 G,2 | F,,8 |] %12
V:6
 x8 | x8 | x8 | x8 | z4 G,4 | x8 | x8 | x8 | x8 | x8 | x8 | x8 |] %12
V:7
 x8 | x8 | x8 | x8 | x8 | x8 | x8 | x8 | x8 | x8 | z4 C,4 | x8 |] %12

